X: 1
T: Irish Tradition, The
M: 4/4
L: 1/8
R: reel
K: Gmaj
Bd(3ddd edBe|dBAB AGED|B,EDB, ~B,2~B,2|GBAG EFGA
Bd(3ddd edBe|dBAB AGED|B,EDB, ~B,2~B,2|GBAF GAcA:|
Bd(3ddd edBd|gb(3bbb agef|~g3e dBGB|cABG AE(3EEE
GEDB, ~B,2A,B,|G,B,DG cABG|cA(3Bcd gedc|(3BcdAc BGG2:|
